X: 31457
T: Paddy Taylor's
R: jig
M: 6/8
K: Dmajor
F3 EFE|DFA d2 A|ded cAG|FAF GFE|
FAF EFE|DFA def|edc ABc|dfe d2:|
e|f2 a g2 e|fdB AB=c|BcB EFG|A2 D FED|
f2 a g2 e|fdB AFA|Bcd ecA|dfe d2:|

